assets/paperswithcode/original.svg

<svg viewBox="0 0 24 24" xmlns="http://www.w3.org/2000/svg" fill="#21CBCE"><path d="m0 2v20h4.4v-2.4h-2v-15.2h2v-2.4zm19.6 0v2.4h2v15.2h-2v2.4h4.4v-20zm-16 3.6v12.8h2.4v-12.8zm7.2 0v12.8h2.4v-12.8zm7.2 0v12.8h2.4v-12.8zm-10.8.8v11.2h2.4v-11.2zm7.2 0v11.2h2.4v-11.2z"/></svg>

<svg xmlns="http://www.w3.org/2000/svg" fill="#21cbce" viewBox="0 0 24 24"><path d="M0 2v20h4.4v-2.4h-2V4.4h2V2zm19.6 0v2.4h2v15.2h-2V22H24V2zm-16 3.6v12.8H6V5.6zm7.2 0v12.8h2.4V5.6zm7.2 0v12.8h2.4V5.6zm-10.8.8v11.2h2.4V6.4zm7.2 0v11.2h2.4V6.4z"/></svg>
